svgs/light/user-astronaut.svg

<svg xmlns="http://www.w3.org/2000/svg" viewBox="0 0 448 512"><!--! Font Awesome Pro 6.0.0 by @fontawesome - https://fontawesome.com License - https://fontawesome.com/license (Commercial License) Copyright 2022 Fonticons, Inc. --><path d="M288 128H160C124.8 128 96 156.8 96 192v16C96 269.8 146.2 320 208 320h32c61.75 0 112-50.25 112-112V192C352 156.8 323.2 128 288 128zM320 208C320 252.1 284.1 288 240 288h-32C163.9 288 128 252.1 128 208V192c0-17.62 14.25-32 32-32h128c17.75 0 32 14.38 32 32V208zM304 400h-160C117.5 400 96 421.5 96 448v48C96 504.8 103.2 512 111.1 512C120.8 512 128 504.8 128 496V448c0-8.8 7.2-16 16-16h160c8.8 0 16 7.2 16 16v48C320 504.8 327.2 512 336 512s16-7.2 16-15.1V448C352 421.5 330.5 400 304 400zM272 448c-8.75 0-16 7.25-16 16s7.25 16 16 16s16-7.25 16-16S280.8 448 272 448zM176 448C167.3 448 160 455.2 160 464v32C160 504.8 167.2 512 175.1 512C184.8 512 192 504.8 192 496V464C192 455.2 184.8 448 176 448zM359.2 328.2C379.5 308.2 395.1 283.5 404.8 256H416c8.8 0 16-7.2 16-16v-96C432 135.2 424.8 128 416 128h-11.25C378.5 53.5 307.6 0 224 0S69.5 53.5 43.25 128H32C23.2 128 16 135.2 16 144v96C16 248.8 23.2 256 32 256h11.25c9.625 27.5 25.38 52.25 45.63 72.25C37.13 347 0 396.2 0 454.4v41.63C0 504.8 7.2 512 15.1 512S32 504.8 32 496v-41.63c0-51.62 38.5-94 88.25-101C150.2 372.8 185.8 384 224 384s73.75-11.25 103.8-30.62C377.5 360.2 416 402.8 416 454.4v41.63C416 504.8 423.2 512 432 512s16-7.2 16-15.1v-41.63C448 396.2 410.9 347 359.2 328.2zM224 352c-88.25 0-160-71.75-160-160s71.75-160 160-160s160 71.75 160 160S312.2 352 224 352z"/></svg>

<svg xmlns="http://www.w3.org/2000/svg" viewBox="0 0 448 512"><!-- Font Awesome Pro 5.15.3 by @fontawesome - https://fontawesome.com License - https://fontawesome.com/license (Commercial License) --><path d="M288 128H160c-35.3 0-64 28.7-64 64v16c0 61.8 50.2 112 112 112h32c61.8 0 112-50.2 112-112v-16c0-35.3-28.7-64-64-64zm32 80c0 44.1-35.9 80-80 80h-32c-44.1 0-80-35.9-80-80v-16c0-17.6 14.3-32 32-32h128c17.7 0 32 14.4 32 32v16zm-128-32l-12 36-36 12 36 12 12 36 12-36 36-12-36-12-12-36zm112 224H144c-26.5 0-48 21.5-48 48v56c0 4.4 3.6 8 8 8h16c4.4 0 8-3.6 8-8v-56c0-8.8 7.2-16 16-16h160c8.8 0 16 7.2 16 16v56c0 4.4 3.6 8 8 8h16c4.4 0 8-3.6 8-8v-56c0-26.5-21.5-48-48-48zm-32 48c-8.8 0-16 7.2-16 16s7.2 16 16 16 16-7.2 16-16-7.2-16-16-16zm-96 0c-8.8 0-16 7.2-16 16v40c0 4.4 3.6 8 8 8h16c4.4 0 8-3.6 8-8v-40c0-8.8-7.2-16-16-16zm183.2-119.7c20.3-20.1 35.9-44.8 45.7-72.3H416c8.8 0 16-7.2 16-16v-96c0-8.8-7.2-16-16-16h-11.2C378.5 53.5 307.6 0 224 0S69.5 53.5 43.2 128H32c-8.8 0-16 7.2-16 16v96c0 8.8 7.2 16 16 16h11.2c9.7 27.5 25.4 52.2 45.7 72.3C37.1 347 0 396.2 0 454.4V504c0 4.4 3.6 8 8 8h16c4.4 0 8-3.6 8-8v-49.6c0-51.6 38.5-94 88.3-101C150.2 372.7 185.8 384 224 384s73.8-11.3 103.7-30.6c49.8 6.9 88.3 49.3 88.3 101V504c0 4.4 3.6 8 8 8h16c4.4 0 8-3.6 8-8v-49.6c0-58.2-37.1-107.4-88.8-126.1zM224 352c-88.2 0-160-71.8-160-160S135.8 32 224 32s160 71.8 160 160-71.8 160-160 160z"/></svg>
